X: 033
T: Mrs Garden of Troup's Strathspey
R: strathspey
M: C|
L: 1/16
Z: 2010 John Chambers <jc:trillian.mit.edu>
B: Abraham Mackintosh "A Collection of Strathspeys, Reels, Jigs &c.", Newcastle, after 1797, p.3
F: http://imslp.info/files/imglnks/usimg/a/a8/IMSLP80796-PMLP164326-Abraham_Mackintosh_coll.pdf
K: F
V: 1
   C2 | F3GFd3 c2F2d2F2 | E2C2-C2F2 EFGE C2E2 | F3G Fd3 c2F2A2f2 | c3f agfe f6 :|
|: c2 | f3ca2c2 bc3ac3 | c3f bagf eg3g3a | fc3ac3 bc3ac3 | A3f agfe f6 c2 |
        f3ca2c2 bc3ac3 | c3f bagf e2g2g2a2 | d2B2d2f2 c2A2c2f2 | A2f2 agfe f6 :|
V: 2 clef=bass middle=d
   z2 | f4b4 a4b4 | c'4c4 c6B2 | A4B4 A4f4 | c'4c4 f4F2 :|
|: z2 | a4f4 e4f4 | a4f4 c'4c4 | a4f4 e4f4 | c4c4 f4z4 |
        a4f4 e4f4 | a4f4 c'4c2f2 | b4B4 a4A4 | c'4c4 f4F2 :|

%%sep 2 1 500

